svg/Tango/devices/network-wired.svg

<?xml version="1.0" encoding="UTF-8" standalone="no"?>
<!-- Created with Inkscape (http://www.inkscape.org/) -->
<svg
   xmlns:dc="http://purl.org/dc/elements/1.1/"
   xmlns:cc="http://creativecommons.org/ns#"
   xmlns:rdf="http://www.w3.org/1999/02/22-rdf-syntax-ns#"
   xmlns:svg="http://www.w3.org/2000/svg"
   xmlns="http://www.w3.org/2000/svg"
   xmlns:xlink="http://www.w3.org/1999/xlink"
   xmlns:sodipodi="http://sodipodi.sourceforge.net/DTD/sodipodi-0.dtd"
   xmlns:inkscape="http://www.inkscape.org/namespaces/inkscape"
   inkscape:export-ydpi="90.000000"
   inkscape:export-xdpi="90.000000"
   inkscape:export-filename="/home/jimmac/Desktop/wi-fi.png"
   width="48px"
   height="48px"
   id="svg11300"
   sodipodi:version="0.32"
   inkscape:version="0.46"
   sodipodi:docbase="/home/jimmac/gfx/novell/pdes/branches/NLD10/network-manager"
   sodipodi:docname="network-wired.svg"
   inkscape:output_extension="org.inkscape.output.svg.inkscape">
  <defs
     id="defs3">
    <inkscape:perspective
       sodipodi:type="inkscape:persp3d"
       inkscape:vp_x="0 : 24 : 1"
       inkscape:vp_y="0 : 1000 : 0"
       inkscape:vp_z="48 : 24 : 1"
       inkscape:persp3d-origin="24 : 16 : 1"
       id="perspective65" />
    <linearGradient
       id="linearGradient12836"
       inkscape:collect="always">
      <stop
         id="stop12838"
         offset="0"
         style="stop-color:#515152;stop-opacity:1;" />
      <stop
         id="stop12840"
         offset="1"
         style="stop-color:#515152;stop-opacity:0;" />
    </linearGradient>
    <linearGradient
       id="linearGradient12828">
      <stop
         id="stop12830"
         offset="0.0000000"
         style="stop-color:#cccccd;stop-opacity:1.0000000;" />
      <stop
         style="stop-color:#adadae;stop-opacity:1.0000000;"
         offset="0.0000000"
         id="stop12862" />
      <stop
         id="stop12832"
         offset="1.0000000"
         style="stop-color:#8f8f90;stop-opacity:0.0000000;" />
    </linearGradient>
    <linearGradient
       id="linearGradient12810">
      <stop
         id="stop12812"
         offset="0"
         style="stop-color:#ffffff;stop-opacity:1;" />
      <stop
         id="stop12814"
         offset="1.0000000"
         style="stop-color:#e5e5e5;stop-opacity:1.0000000;" />
    </linearGradient>
    <linearGradient
       id="linearGradient11625"
       inkscape:collect="always">
      <stop
         id="stop11627"
         offset="0"
         style="stop-color:#fce94f;stop-opacity:1;" />
      <stop
         id="stop11629"
         offset="1"
         style="stop-color:#fce94f;stop-opacity:0;" />
    </linearGradient>
    <linearGradient
       id="linearGradient11615">
      <stop
         id="stop11617"
         offset="0.0000000"
         style="stop-color:#636363;stop-opacity:1.0000000;" />
      <stop
         id="stop11619"
         offset="1.0000000"
         style="stop-color:#000000;stop-opacity:1.0000000;" />
    </linearGradient>
    <linearGradient
       id="linearGradient11602">
      <stop
         id="stop11604"
         offset="0.0000000"
         style="stop-color:#f6f6f6;stop-opacity:1.0000000;" />
      <stop
         id="stop11606"
         offset="1.0000000"
         style="stop-color:#e0e0e0;stop-opacity:1.0000000;" />
    </linearGradient>
    <linearGradient
       id="linearGradient11594">
      <stop
         id="stop11596"
         offset="0"
         style="stop-color:#ffffff;stop-opacity:1;" />
      <stop
         id="stop11598"
         offset="1.0000000"
         style="stop-color:#d1d1d1;stop-opacity:1.0000000;" />
    </linearGradient>
    <linearGradient
       id="linearGradient11520">
      <stop
         id="stop11522"
         offset="0.0000000"
         style="stop-color:#ffffff;stop-opacity:1.0000000;" />
      <stop
         id="stop11524"
         offset="1.0000000"
         style="stop-color:#dcdcdc;stop-opacity:1.0000000;" />
    </linearGradient>
    <linearGradient
       id="linearGradient11508"
       inkscape:collect="always">
      <stop
         id="stop11510"
         offset="0"
         style="stop-color:#000000;stop-opacity:1;" />
      <stop
         id="stop11512"
         offset="1"
         style="stop-color:#000000;stop-opacity:0;" />
    </linearGradient>
    <radialGradient
       gradientTransform="matrix(1.995058,-1.383691e-32,0.000000,1.671510,-27.19988,-29.02822)"
       gradientUnits="userSpaceOnUse"
       r="20.530962"
       fy="35.878170"
       fx="24.445690"
       cy="35.878170"
       cx="24.445690"
       id="radialGradient11526"
       xlink:href="#linearGradient11520"
       inkscape:collect="always" />
    <radialGradient
       r="6.5659914"
       fy="44.565483"
       fx="30.203562"
       cy="44.565483"
       cx="30.203562"
       gradientTransform="matrix(1.000000,0.000000,0.000000,0.338462,-4.933466e-14,29.48178)"
       gradientUnits="userSpaceOnUse"
       id="radialGradient11532"
       xlink:href="#linearGradient11508"
       inkscape:collect="always" />
    <linearGradient
       gradientTransform="matrix(1.061966,0.000000,0.000000,0.837825,-4.389811,0.164729)"
       gradientUnits="userSpaceOnUse"
       y2="38.947163"
       x2="31.799011"
       y1="8.9471626"
       x1="20.092352"
       id="linearGradient11600"
       xlink:href="#linearGradient11594"
       inkscape:collect="always" />
    <linearGradient
       gradientTransform="matrix(1.000000,0.000000,0.000000,0.837825,-2.875000,0.164729)"
       gradientUnits="userSpaceOnUse"
       y2="39.447163"
       x2="24.445671"
       y1="12.947163"
       x1="24.445671"
       id="linearGradient11608"
       xlink:href="#linearGradient11602"
       inkscape:collect="always" />
    <radialGradient
       r="4.7500000"
       fy="27.749998"
       fx="25.000000"
       cy="27.749998"
       cx="25.000000"
       gradientTransform="matrix(3.070491,2.727143e-15,-3.444813e-15,3.878514,-55.26225,-82.65742)"
       gradientUnits="userSpaceOnUse"
       id="radialGradient12909"
       xlink:href="#linearGradient11615"
       inkscape:collect="always" />
    <linearGradient
       y2="27.375000"
       x2="21.500000"
       y1="30.000000"
       x1="21.500000"
       gradientTransform="matrix(1.016250,0.000000,0.000000,1.000000,1.658750,-6.000012)"
       gradientUnits="userSpaceOnUse"
       id="linearGradient12918"
       xlink:href="#linearGradient11625"
       inkscape:collect="always" />
    <linearGradient
       y2="27.375000"
       x2="21.500000"
       y1="30.000000"
       x1="21.500000"
       gradientTransform="matrix(0.985000,0.000000,0.000000,1.000000,0.315001,-6.000012)"
       gradientUnits="userSpaceOnUse"
       id="linearGradient12921"
       xlink:href="#linearGradient11625"
       inkscape:collect="always" />
    <linearGradient
       y2="27.375000"
       x2="21.500000"
       y1="30.000000"
       x1="21.500000"
       gradientTransform="matrix(0.985000,0.000000,0.000000,1.022813,-1.675625,-6.638771)"
       gradientUnits="userSpaceOnUse"
       id="linearGradient12924"
       xlink:href="#linearGradient11625"
       inkscape:collect="always" />
    <linearGradient
       gradientTransform="matrix(0.755725,0,0,0.755725,-25.19847,17.09924)"
       y2="12.022278"
       x2="62.591469"
       y1="25.209778"
       x1="84.998962"
       gradientUnits="userSpaceOnUse"
       id="linearGradient12927"
       xlink:href="#linearGradient12810"
       inkscape:collect="always" />
    <radialGradient
       r="7.0056136"
       fy="33.398670"
       fx="88.593018"
       cy="33.398670"
       cx="88.593018"
       gradientTransform="matrix(0.732463,0.172296,-0.147115,0.625415,-17.70794,5.185566)"
       gradientUnits="userSpaceOnUse"
       id="radialGradient12931"
       xlink:href="#linearGradient12828"
       inkscape:collect="always" />
    <linearGradient
       gradientTransform="matrix(0.755725,0,0,0.755725,-24.84491,17.27602)"
       y2="36.656250"
       x2="92.062500"
       y1="31.656250"
       x1="88.750000"
       gradientUnits="userSpaceOnUse"
       id="linearGradient12934"
       xlink:href="#linearGradient12836"
       inkscape:collect="always" />
    <linearGradient
       gradientTransform="matrix(0.755725,0,0,0.755725,-25.19847,17.09924)"
       y2="21.459777"
       x2="87.528968"
       y1="21.459777"
       x1="65.623963"
       gradientUnits="userSpaceOnUse"
       id="linearGradient12941"
       xlink:href="#linearGradient12810"
       inkscape:collect="always" />
    <radialGradient
       r="6.5659914"
       fy="44.565483"
       fx="30.203562"
       cy="44.565483"
       cx="30.203562"
       gradientTransform="matrix(1,7.106946e-17,-4.3595e-17,0.338462,-5.036557e-14,29.48178)"
       gradientUnits="userSpaceOnUse"
       id="radialGradient12962"
       xlink:href="#linearGradient11508"
       inkscape:collect="always" />
    <linearGradient
       inkscape:collect="always"
       xlink:href="#linearGradient12810"
       id="linearGradient3152"
       gradientUnits="userSpaceOnUse"
       gradientTransform="matrix(1.37407,0,0,1.37407,-85.1015,-12.38821)"
       x1="84.998962"
       y1="25.209778"
       x2="62.591469"
       y2="12.022278" />
    <radialGradient
       inkscape:collect="always"
       xlink:href="#linearGradient12828"
       id="radialGradient3156"
       gradientUnits="userSpaceOnUse"
       gradientTransform="matrix(0.889444,0.209222,-0.178645,0.759454,-34.9767,-11.86445)"
       cx="88.593018"
       cy="33.398670"
       fx="88.593018"
       fy="33.398670"
       r="7.0056136" />
    <linearGradient
       inkscape:collect="always"
       xlink:href="#linearGradient12836"
       id="linearGradient3159"
       gradientUnits="userSpaceOnUse"
       gradientTransform="matrix(1.37407,0,0,1.37407,-84.45865,-12.06679)"
       x1="88.750000"
       y1="31.656250"
       x2="92.062500"
       y2="36.656250" />
    <linearGradient
       inkscape:collect="always"
       xlink:href="#linearGradient12810"
       id="linearGradient3166"
       gradientUnits="userSpaceOnUse"
       gradientTransform="matrix(1.37407,0,0,1.37407,-85.1015,-12.38821)"
       x1="65.623963"
       y1="21.459777"
       x2="87.528968"
       y2="21.459777" />
  </defs>
  <sodipodi:namedview
     stroke="#a40000"
     fill="#cc0000"
     id="base"
     pagecolor="#ffffff"
     bordercolor="#666666"
     borderopacity="0.25490196"
     inkscape:pageopacity="0.0"
     inkscape:pageshadow="2"
     inkscape:zoom="1"
     inkscape:cx="42.256907"
     inkscape:cy="27.418015"
     inkscape:current-layer="layer1"
     showgrid="false"
     inkscape:grid-bbox="true"
     inkscape:document-units="px"
     inkscape:showpageshadow="false"
     inkscape:window-width="1220"
     inkscape:window-height="818"
     inkscape:window-x="214"
     inkscape:window-y="30" />
  <metadata
     id="metadata4">
    <rdf:RDF>
      <cc:Work
         rdf:about="">
        <dc:format>image/svg+xml</dc:format>
        <dc:type
           rdf:resource="http://purl.org/dc/dcmitype/StillImage" />
        <dc:creator>
          <cc:Agent>
            <dc:title>Jakub Steiner</dc:title>
          </cc:Agent>
        </dc:creator>
        <dc:source>http://jimmac.musichall.cz</dc:source>
        <cc:license
           rdf:resource="http://creativecommons.org/licenses/publicdomain/" />
        <dc:title>Network</dc:title>
      </cc:Work>
      <cc:License
         rdf:about="http://creativecommons.org/licenses/publicdomain/">
        <cc:permits
           rdf:resource="http://creativecommons.org/ns#Reproduction" />
        <cc:permits
           rdf:resource="http://creativecommons.org/ns#Distribution" />
        <cc:permits
           rdf:resource="http://creativecommons.org/ns#DerivativeWorks" />
      </cc:License>
    </rdf:RDF>
  </metadata>
  <g
     id="layer1"
     inkscape:label="Layer 1"
     inkscape:groupmode="layer">
    <path
       transform="matrix(2.752736,1.43844,-2.455422,4.679605,48.40044,-223.0412)"
       d="M 36.769553 44.565483 A 6.5659914 2.2223356 0 1 1  23.63757,44.565483 A 6.5659914 2.2223356 0 1 1  36.769553 44.565483 z"
       sodipodi:ry="2.2223356"
       sodipodi:rx="6.5659914"
       sodipodi:cy="44.565483"
       sodipodi:cx="30.203562"
       id="path12960"
       style="opacity:0.40641713;color:#000000;fill:url(#radialGradient12962);fill-opacity:1;fill-rule:evenodd;stroke:none;stroke-width:2.81415844;stroke-linecap:butt;stroke-linejoin:miter;marker:none;marker-start:none;marker-mid:none;marker-end:none;stroke-miterlimit:10;stroke-dasharray:none;stroke-dashoffset:0;stroke-opacity:1;visibility:visible;display:inline;overflow:visible"
       sodipodi:type="arc"
       inkscape:r_cx="true"
       inkscape:r_cy="true" />
    <path
       inkscape:r_cy="true"
       inkscape:r_cx="true"
       sodipodi:nodetypes="ccccccc"
       id="path12803"
       d="M 12.80097,5.8182116 L 5.1577075,12.516803 L 5.4153448,18.657177 L 23.407072,34.845436 L 35.000785,24.110515 L 35.258424,17.411926 L 12.80097,5.8182116 z "
       style="color:#000000;fill:#484848;fill-opacity:1;fill-rule:evenodd;stroke:#4d4d4d;stroke-width:1.99999988;stroke-linecap:round;stroke-linejoin:round;marker:none;marker-start:none;marker-mid:none;marker-end:none;stroke-miterlimit:10;stroke-dasharray:none;stroke-dashoffset:0;stroke-opacity:1;visibility:visible;display:inline;overflow:visible" />
    <path
       inkscape:r_cy="true"
       inkscape:r_cx="true"
       id="path12787"
       d="M 5.0704024,12.658182 L 5.3171158,18.579297 L 23.57389,34.615652 L 23.327178,28.201111 L 5.0704024,12.658182 z "
       style="color:#000000;fill:#a6a6a6;fill-opacity:1;fill-rule:evenodd;stroke:none;stroke-width:1;stroke-linecap:butt;stroke-linejoin:bevel;marker:none;marker-start:none;marker-mid:none;marker-end:none;stroke-miterlimit:10;stroke-dasharray:none;stroke-dashoffset:0;stroke-opacity:1;visibility:visible;display:inline;overflow:visible" />
    <path
       inkscape:r_cy="true"
       inkscape:r_cx="true"
       sodipodi:nodetypes="ccccc"
       id="path12789"
       d="M 23.327178,28.201111 L 23.327178,34.739009 L 34.922696,24.006986 L 35.169408,17.345732 L 23.327178,28.201111 z "
       style="color:#000000;fill:#7f7f7f;fill-opacity:1;fill-rule:evenodd;stroke:none;stroke-width:1;stroke-linecap:butt;stroke-linejoin:bevel;marker:none;marker-start:none;marker-mid:none;marker-end:none;stroke-miterlimit:10;stroke-dasharray:none;stroke-dashoffset:0;stroke-opacity:1;visibility:visible;display:inline;overflow:visible" />
    <path
       inkscape:r_cy="true"
       inkscape:r_cx="true"
       sodipodi:nodetypes="ccccc"
       id="path12791"
       d="M 5.0704024,12.669106 L 23.57389,28.447823 L 35.169408,17.592444 L 12.71851,5.7502141 L 5.0704024,12.669106 z "
       style="color:#000000;fill:url(#linearGradient3166);fill-opacity:1;fill-rule:evenodd;stroke:none;stroke-width:1;stroke-linecap:butt;stroke-linejoin:bevel;marker:none;marker-start:none;marker-mid:none;marker-end:none;stroke-miterlimit:10;stroke-dasharray:none;stroke-dashoffset:0;stroke-opacity:1;visibility:visible;display:inline;overflow:visible" />
    <path
       inkscape:r_cy="true"
       inkscape:r_cx="true"
       sodipodi:nodetypes="ccsccc"
       id="path12793"
       d="M 6.2664926,11.644777 L 9.1411708,13.645034 C 9.1411708,13.645034 9.8196319,13.891747 10.128023,13.645034 C 10.436414,13.398322 10.374736,12.658182 10.374736,12.658182 L 7.5000581,10.400285 L 6.2664926,11.644777 z "
       style="color:#000000;fill:#ffc11a;fill-opacity:1;fill-rule:evenodd;stroke:none;stroke-width:1;stroke-linecap:butt;stroke-linejoin:bevel;marker:none;marker-start:none;marker-mid:none;marker-end:none;stroke-miterlimit:10;stroke-dasharray:none;stroke-dashoffset:0;stroke-opacity:1;visibility:visible;display:inline;overflow:visible" />
    <path
       inkscape:r_cy="true"
       inkscape:r_cx="true"
       sodipodi:nodetypes="ccsccc"
       style="color:#000000;fill:#ffc11a;fill-opacity:1;fill-rule:evenodd;stroke:none;stroke-width:1;stroke-linecap:butt;stroke-linejoin:bevel;marker:none;marker-start:none;marker-mid:none;marker-end:none;stroke-miterlimit:10;stroke-dasharray:none;stroke-dashoffset:0;stroke-opacity:1;visibility:visible;display:inline;overflow:visible"
       d="M 8.4010304,9.6710707 L 11.361588,11.671328 C 11.361588,11.671328 12.040051,11.918041 12.348442,11.671328 C 12.656831,11.424616 12.595154,10.684476 12.595154,10.684476 L 9.7204774,8.4265796 L 8.4010304,9.6710707 z "
       id="path12795" />
    <path
       inkscape:r_cy="true"
       inkscape:r_cx="true"
       sodipodi:nodetypes="ccsccc"
       id="path12797"
       d="M 10.583973,7.7348437 L 13.458651,9.8209807 C 13.458651,9.8209807 14.137112,10.067694 14.445505,9.8209807 C 14.753896,9.5742672 14.692216,8.8341268 14.692216,8.8341268 L 11.731658,6.4903526 L 10.583973,7.7348437 z "
       style="color:#000000;fill:#ffc11a;fill-opacity:1;fill-rule:evenodd;stroke:none;stroke-width:1;stroke-linecap:butt;stroke-linejoin:bevel;marker:none;marker-start:none;marker-mid:none;marker-end:none;stroke-miterlimit:10;stroke-dasharray:none;stroke-dashoffset:0;stroke-opacity:1;visibility:visible;display:inline;overflow:visible" />
    <path
       inkscape:r_cy="true"
       inkscape:r_cx="true"
       style="opacity:0.34224596;color:#000000;fill:none;fill-opacity:1;fill-rule:evenodd;stroke:#ffffff;stroke-width:1;stroke-linecap:round;stroke-linejoin:round;marker:none;marker-start:none;marker-mid:none;marker-end:none;stroke-miterlimit:10;stroke-dasharray:none;stroke-dashoffset:0;stroke-opacity:1;visibility:visible;display:inline;overflow:visible"
       d="M 12.829749,6.3689141 L 5.7478543,13.004915 L 5.9865695,18.350786 L 23.25803,33.865361 L 34.343751,23.57536 L 34.582465,17.96991 L 12.829749,6.3689141 z "
       id="path12820"
       sodipodi:nodetypes="ccccccc" />
    <path
       inkscape:r_cy="true"
       inkscape:r_cx="true"
       sodipodi:nodetypes="csc"
       id="path12822"
       d="M 31.564353,28.210626 C 31.564353,28.210626 37.404149,30.529369 40.495806,35.252734 C 43.587462,39.976098 45.305051,46.846447 45.305051,46.846447"
       style="color:#000000;fill:none;fill-opacity:1;fill-rule:evenodd;stroke:url(#linearGradient3159);stroke-width:5;stroke-linecap:round;stroke-linejoin:bevel;marker:none;marker-start:none;marker-mid:none;marker-end:none;stroke-miterlimit:10;stroke-dasharray:none;stroke-dashoffset:0;stroke-opacity:1;visibility:visible;display:inline;overflow:visible" />
    <path
       inkscape:r_cy="true"
       inkscape:r_cx="true"
       id="path12824"
       d="M 32.200708,26.732644 C 31.367882,26.833528 30.70943,27.486206 30.601215,28.318112 C 30.492999,29.150018 30.962562,29.949431 31.741863,30.260022 C 31.741863,30.260022 36.625199,32.925232 38.260739,35.423974 C 40.0495,38.156803 41.243238,42.622122 41.243238,42.622122 C 41.496652,43.6041 42.498135,44.194717 43.480113,43.941304 C 44.462091,43.687889 45.052708,42.686407 44.799295,41.704429 C 44.799295,41.704429 43.698802,36.992826 41.35795,33.416522 C 38.863875,29.606131 33.118401,26.876032 33.118401,26.876032 C 32.829855,26.750352 32.51384,26.700975 32.200708,26.732644 z "
       style="color:#000000;fill:url(#radialGradient3156);fill-opacity:1;fill-rule:evenodd;stroke:none;stroke-width:4;stroke-linecap:round;stroke-linejoin:bevel;marker:none;marker-start:none;marker-mid:none;marker-end:none;stroke-miterlimit:10;stroke-dasharray:none;stroke-dashoffset:0;stroke-opacity:1;visibility:visible;display:inline;overflow:visible"
       sodipodi:nodetypes="cscscscscc" />
    <path
       inkscape:r_cy="true"
       inkscape:r_cx="true"
       sodipodi:nodetypes="cczccc"
       style="color:#000000;fill:#a0a0a1;fill-opacity:1;fill-rule:evenodd;stroke:none;stroke-width:1;stroke-linecap:butt;stroke-linejoin:bevel;marker:none;marker-start:none;marker-mid:none;marker-end:none;stroke-miterlimit:10;stroke-dasharray:none;stroke-dashoffset:0;stroke-opacity:1;visibility:visible;display:inline;overflow:visible"
       d="M 15.925782,15.865453 L 30.975286,27.214258 C 32.702277,28.324466 34.36759,27.029223 35.416121,25.733979 C 36.464653,24.438734 36.279618,22.896778 35.169408,22.03328 L 19.133053,13.39832 L 15.925782,15.865453 z "
       id="path12801" />
    <path
       inkscape:r_cy="true"
       inkscape:r_cx="true"
       sodipodi:nodetypes="cczccc"
       id="path12799"
       d="M 15.309,15.865453 L 30.728571,25.240552 C 31.592068,25.857335 33.442415,25.117197 34.182556,24.253702 C 34.922696,23.390204 34.305913,22.156639 33.689131,21.786569 L 19.009696,13.02825 L 15.309,15.865453 z "
       style="color:#000000;fill:url(#linearGradient3152);fill-opacity:1;fill-rule:evenodd;stroke:none;stroke-width:1;stroke-linecap:butt;stroke-linejoin:bevel;marker:none;marker-start:none;marker-mid:none;marker-end:none;stroke-miterlimit:10;stroke-dasharray:none;stroke-dashoffset:0;stroke-opacity:1;visibility:visible;display:inline;overflow:visible" />
  </g>
</svg>

<svg xmlns="http://www.w3.org/2000/svg" xmlns:xlink="http://www.w3.org/1999/xlink" viewBox="0 0 48 48"><defs><linearGradient id="4" gradientUnits="userSpaceOnUse" x1="37.49" y1="31.431" x2="42.04" y2="38.3"><stop stop-color="#515152"/><stop offset="1" stop-color="#515152" stop-opacity="0"/></linearGradient><linearGradient xlink:href="#0" id="2" gradientUnits="userSpaceOnUse" x1="31.693" y1="22.252" x2=".904" y2="4.131"/><linearGradient xlink:href="#0" id="5" gradientUnits="userSpaceOnUse" x1="5.07" x2="35.17"/><linearGradient id="0"><stop stop-color="#fff"/><stop offset="1" stop-color="#e5e5e5"/></linearGradient><radialGradient id="3" gradientUnits="userSpaceOnUse" gradientTransform="matrix(.88944.20922-.17864.75945-34.977-11.864)" cx="88.59" cy="33.399" r="7.01"><stop stop-color="#cccccd"/><stop stop-color="#adadae"/><stop offset="1" stop-color="#8f8f90" stop-opacity="0"/></radialGradient><radialGradient r="6.566" cy="44.565" cx="30.2" gradientTransform="matrix(1 0 0 .33846 0 29.482)" gradientUnits="userSpaceOnUse" id="1"><stop/><stop offset="1" stop-opacity="0"/></radialGradient></defs><g fill-rule="evenodd" color="#000"><path transform="matrix(2.75274 1.43844-2.45542 4.6796 48.4-223.04)" d="M36.769553 44.565483A6.565991 2.222336 0 1 1 23.63757 44.565483 6.565991 2.222336 0 1 1 36.769553 44.565483" opacity=".406" fill="url(#1)"/><path d="m12.801 5.818l-7.643 6.699.258 6.14 17.992 16.188 11.594-10.735.258-6.699-22.457-11.594z" stroke-width="2" stroke-linecap="round" stroke-miterlimit="10" fill="#484848" stroke-linejoin="round" stroke="#4d4d4d"/><path d="m5.07 12.658l.247 5.921 18.257 16.04-.247-6.415-18.257-15.543" fill="#a6a6a6"/><path d="m23.327 28.2v6.538l11.596-10.732.247-6.661-11.842 10.855" fill="#7f7f7f"/><path d="m5.07 12.669l18.503 15.779 11.596-10.855-22.451-11.842-7.648 6.919" fill="url(#5)"/><g fill="#ffc11a"><path d="m6.266 11.645l2.875 2c0 0 .678.247.987 0 .308-.247.247-.987.247-.987l-2.875-2.258-1.234 1.244"/><path d="m8.401 9.671l2.961 2c0 0 .678.247.987 0 .308-.247.247-.987.247-.987l-2.875-2.258-1.319 1.244"/><path d="m10.584 7.735l2.875 2.086c0 0 .678.247.987 0 .308-.247.247-.987.247-.987l-2.961-2.344-1.148 1.244"/></g><g fill="none" stroke-linecap="round" stroke-miterlimit="10"><path d="m12.83 6.369l-7.082 6.636.239 5.346 17.271 15.515 11.09-10.29.239-5.605-21.753-11.601z" opacity=".342" stroke-linejoin="round" stroke="#fff"/><path d="m31.564 28.21c0 0 5.84 2.319 8.931 7.04 3.092 4.723 4.809 11.594 4.809 11.594" stroke-width="5" stroke-linejoin="bevel" stroke="url(#4)"/></g><path d="m32.2 26.733c-.833.101-1.491.754-1.599 1.585-.108.832.361 1.631 1.141 1.942 0 0 4.883 2.665 6.519 5.164 1.789 2.733 2.982 7.198 2.982 7.198.253.982 1.255 1.573 2.237 1.319.982-.253 1.573-1.255 1.319-2.237 0 0-1.1-4.712-3.441-8.288-2.494-3.81-8.24-6.54-8.24-6.54-.289-.126-.605-.175-.918-.143" fill="url(#3)"/><path d="m15.926 15.865l15.05 11.349c1.727 1.11 3.392-.185 4.441-1.48 1.049-1.295.863-2.837-.247-3.701l-16.04-8.635-3.207 2.467" fill="#a0a0a1"/><path d="m15.309 15.865l15.42 9.375c.863.617 2.714-.123 3.454-.987.74-.863.123-2.097-.493-2.467l-14.679-8.758-3.701 2.837" fill="url(#2)"/></g></svg>
